X:1
T:Mark the merry elves
T:John Wall Callcott (1766-1821) Accompaniment added by William Horsley (1774-1858)
T:Poem "On Shakespeare" by William Lisle Bowles (1762-1850), 5th stanza
T:Mark the merry elves
C:John Wall Callcott (1766-1821)
C:Accompaniment added by William Horsley (1774-1858)
Z:Poem "On Shakespeare" by William
Z:Lisle Bowles (1762-1850), 5th stanza
%%score [ 1 2 3 ] { ( 4 6 ) | 5 }
L:1/8
Q:1/4=132
M:2/4
K:F
V:1 treble nm="Treble" snm="S."
V:2 treble nm="Treble" snm="S."
V:3 bass nm="Bass" snm="B."
V:4 treble nm="Piano" snm="Pno."
V:6 treble 
V:5 bass 
V:1
!f!"^With spirit" .A.G .A.B | .c2 .f2 | .c2 .A2 | !>!B4 | .G.F .G.A | .B2 .g2 | .e2 .B2 | !>!A4 | %8
w: Mark the mer- ry|elves of|fai- ry|land!|mark the mer- ry|elves of|fai- ry|land!|
 F3 F | F2 F2 | EG FA | .G4 | A3 A | A2 A2 | GB Ac | .B4 |!<(! Ac dc!<)! | =B2!f! c2 |{e} d2 c=B | %19
w: p the|cold moon's|gleam- * y _|glance,|In the|cold moon's|gleam- * y _|glance,|in _ the _|cold moon's|* y _|
 .c4 | z4 | z4 | z4 | z4 |"^dolce" c3 A | GG B2 | A2 F2 | G4 | z4 | z4 | z4 | z4 | z4 | z4 | z4 | %35
w: glance.|||||They with|sha- dow- y|mor- ris|dance,||||||||
 z2!pp! c2 | c2 G2 | A2 B2 | A2!f! f2 | f2 e2 | d2!p! =B2 | c2 A2 |"^dim""^slowly"!>(! G4- | %43
w: soft|mu- sic|dies a-|long the|de- sert|land, a-|long the|de-|
 G2 F2!>)! | !fermata!E4 :| z2!pp! E2 | E3 E | G3 G |!f! !fermata!B4 |: %49
w: * sert|land.|a-|long the|de- sert|land.|
"^With spirit"[Q:1/4=132] .A2 .c2 | .f2 z c | cd ef | g2 z2 |"^slowly" e2 dc | f2"^dim" A2 | %55
w: Soon at|peep of|cool _ eyed _|day,|p the *|num'- rous|
 G2 A2 | G2 z2 |"^With spirit"!f! .F2 .A2 | .d2 z d | ^cd ef | g2 z2 |"^slowly" f2 ed | ^c2 d2 | %63
w: lights de-|cay,|soon at|peep of|cool _ eyed _|day,|Soon the *|num'- rous|
 F2"^dim" G2 | !fermata!A4 |"^In the first time" .A.c .c.c | .B.d .d2 | .G.B .B.B | .A.c .c2 | %69
w: lights de-|cay.|Mer- ri- ly now,|mer- ri- ly,|mer- ri- ly now,|mer- ri- ly,|
 !^!f2 ed | dc BA | GB Ac | B2 z2 |!f! .f.f .f.f | .f.f .f2 | .c.c .c.c | .c.c .c2 |!p!!<(! d2 dd | %78
w: Af- ter the|dew- * y _|moon _ they _|fly,|mer- ri- ly now,|mer- ri- ly,|mer- ri- ly now,|mer- ri- ly,|Af- ter the|
 d2!<)! d2 | cd cB | .A2 z2 |"^dolce" c2 BA | G2 cA | G2 AF | .G2 z2 |!f! .A.f .f.f | .e.g .g2 | %87
w: dew- y|moon _ they _|fly,|af- ter the|dew- y _|moon they _|fly,|mer- ri- ly now,|mer- ri- ly|
!p! .G.B .B.B | .A.c .c2 |!f! Bd c_e | df =eg | fc dc | B4- | !fermata!B4 |!p! Ac dc | fc dc | %96
w: mer- ri- ly now,|mer- ri- ly,|af- * ter the|dew- * y _|moon _ they _|fly,|_|af- * ter the|dew- * y *|
 cB AG | .A2 .c2 | .A2 .c2 | .f4 :| %100
w: moon * they *|fly, they|fly, they|fly.|
V:2
!f! .F.E .F.G | .A2 .A2 | .A2 .F2 | !>!G4 | .E.D .E.F | .G2 .B2 | .G2 .G2 | !>!F4 | z4 | z4 | z4 | %11
w: Mark the mer- ry|elves of|fai- ry|land!|mark the mer- ry|elves of|fai- ry|land!||||
 z4 | F3 F | F2 F2 | EG FA | .G4 | F2!<(! F2 | F2!<)!!f! E2 |{G} F2 ED | .E4 |"^dolce" A3 F | %21
w: |In the|cold moon's|gleam- * y _|glance,|in the|cold moon's|* y _|glance.|They with|
 EE G2 | F2 D2 | E4 | A3 F | EE G2 | F2 D2 | E4 | z4 | z2!p! G2 | G2 D2 | E2 F2 | E3 F | %33
w: sha- dow- y|mor- ris|dance,|They with|sha- dow- y|mor- ris|dance,|||mu- sic|dies a-|long the|
 G2!pp! c2 | c2 G2 | A2 B2 | A2 E2 | F2 G2 | F2!f! A2 | A2 G2 | F2!p! D2 | G2 F2 | %42
w: land, soft|mu- sic|dies, soft|mu- sic|dies a-|long the|de- sert|land, a-|long the|
"^dim""^slowly"!>(! E4- | E2 D2!>)! | !fermata!C4 :| z2!pp! E2 | C3 C | E3 E | !fermata!G4 |: %49
w: de-|* sert|land.|a-|long the|de- sert|land.|
!f! .F2 .A2 | .A2 z A | EF GA | B2 z2 | G2 B2 | A2 F2 | E2 F2 | E2 z2 |!f! .D2 .F2 | .F2 z A | %59
w: Soon at|peep of|cool _ eyed _|day,|p the|num'- rous|lights de-|cay,|soon at|peep of|
 A=B ^cd | e2 z2 | A2 GF | E2 F2 | D2 D2 | !fermata!^C4 | .F.A .A.A | .G.B .B2 | .E.G .G.G | %68
w: cool _ eyed _|day,|Soon the *|num'- rous|lights de-|cay.|Mer- ri- ly now,|mer- ri- ly,|mer- ri- ly now,|
 .F.A .A2 | !^!d2 cB | BA GF | EG FA | G2 z2 |!f! .A.c .c.c | .B.d .d2 | .G.B .B.B | .A.c .c2 | %77
w: mer- ri- ly,|Af- ter the|dew- * y _|moon _ they _|fly,|mer- ri- ly now,|mer- ri- ly,|mer- ri- ly now,|mer- ri- ly,|
!p!!<(! B2 BB | B2!<)! B2 | AB AG | .F2 z2 |"^dolce" A2 GF | E2 AF | E2 FD | .E2 z2 | %85
w: Af- ter the|dew- y|moon _ they _|fly,|af- ter the|dew- y _|moon they _|fly,|
!f! .F.A .A.A | .G.B .B2 |!p! .E.G .G.G | .F.A .A2 |!f! F2 FF | F2 B2 | A2 BA | G4- | !fermata!G4 | %94
w: mer- ri- ly now,|mer- ri- ly|mer- ri- ly now,|mer- ri- ly,|af- ter the|dew- y|moon they _|fly,|_|
!p! FA BA | A2 BA | AG FE | .F2 .E2 | .F2 .A2 | .A4 :| %100
w: af- * ter the|dew- y *|moon * they *|fly, they|fly, they|fly.|
V:3
!f! .F,.F, .F,.F, | .F,2 .F,2 | .F,2 .F,2 | !>!C,4 | .C,.C, .C,.C, | .C,2 .C,2 | .C,2 .C,2 | %7
w: Mark the mer- ry|elves of|fai- ry|land!|mark the mer- ry|elves of|fai- ry|
 !>!F,4 | A,C DC | B,A, G,F, | C,2 C,2 | .C,4 | F,3 C | B,A, G,F, | C,2 C,2 | .C,4 | %16
w: land!|dolce * the _|cold * * moon's|gleam- y|glance,|In the|cold _ moon's _|gleam- y|glance,|
!<(! F,2 D,2!<)! | G,2!f! C,2 | G,2 G,,2 | .C,4 |"^dolce" C3 A, | G,G, B,2 | A,2 F,2 | C,4 | z4 | %25
w: in the|cold moon's|gleam- y|glance.|They with|sha- dow- y|mor- ris|dance,||
 z4 | z4 | z2!p! G,2 | G,2 D,2 | E,2 F,2 | E,2 =B,,2 | C,2 D,2 | C,4- | C,4- | C,4- | C,4- | C,4 | %37
w: ||soft|mu- sic|dies a-|long the|de- sert|land,|_||||
 z2!pp! C,2 | F,4 | D,4 | G,2!p! F,2 | E,2 F,2 |"^slowly"!>(! G,4 |"^dim" G,,4!>)! | %44
w: soft|mu-|sic|dies a-|long the|de-|sert|
 !fermata!C,4 :| z2!pp! C,2 | C,3 C, | C,3 C, | !fermata!C,4 |:!f! .F,2 .F,2 | .F,2 z F, | C,2 C2 | %52
w: land.|a-|long the|de- sert|land.|Soon at|peep of|cool eyed|
 C2 z2 | C,2 C,2 | C,2 C,2 | C,2 C,2 | C,2 z2 |!f! .D,2 .D,2 | .D,2 z F, | A,2 A,2 | ^C,2 z2 | %61
w: day,|p the|num'- rous|lights de-|cay,|soon at|peep of|cool eyed|day,|
 D,2 G,2 | A,2 F,2 | B,,3 B,, | !fermata!A,,4 | z4 | z4 | z4 | z4 | z4 | z4 | z4 | z4 | %73
w: Soon the|num'- rous|lights de-|cay.|||||||||
!f! .F,.A, .A,.A, | .G,.B, .B,2 | .E,.G, .G,.G, | .F,.A, .A,2 |!p!!<(! B,,C, D,E, | F,G,!<)! A,B, | %79
w: mer- ri- ly now,|mer- ri- ly,|mer- ri- ly now,|mer- ri- ly,|Af- * ter the|dew- * y *|
 C2 C,2 | .D,2 z2 |"^dolce" A,,2 B,,B,, | C,2 C,2 | C,2 C,2 | .C,2 z2 |!f! .F,.F, .F,.F, | %86
w: moon they|fly,|af- ter the|dew- y|moon they|fly,|mer- ri- ly now,|
 .C.C .C2 |!p! .C,.C, .C,.C, | .F,.F, .F,2 |!f! D,2 F,F, | B,2 G,2 | A,2 F,2 | G,2 G,2 | %93
w: mer- ri- ly|mer- ri- ly now,|mer- ri- ly,|af- ter the|dew- y|moon they||
 !fermata!C,4 |!p! F,2 F,F, | F,2 B,,2 | C,2 C,2 | .F,2 .C,2 | .F,2 .F,2 | .F,4 :| %100
w: |af- ter the|dew- y|moon they|fly, they|fly, they|fly.|
V:4
!f! (.[FA].[EG] .[FA].[GB]) | .[Ac]2 .[Af]2 | .[Ac]2 .[FA]2 | !>![GB]4 | (.[EG].[DF] .[EG].[FA]) | %5
w: |||||
 .[GB]2 .[Bg]2 | .[Ge]2 .[GB]2 | !>![FA]4 |!p! F3 F | F2 F2 | (EG FA) | .G4 | [FA]3 [FA] | %13
w: ||||||||
 [FA]2 [FA]2 | ([EG][GB] [FA][Ac]) | .[GB]4 |!<(! (Ac dc)!<)! | [F=B]2!f! [Ec]2 | %18
w: |||||
{G} [Fde] x ([Ec][D=B]) | .[Ec]4 |"^dolce" (A3 F | E2 G2 | F2 D2 | E4) | ([Ac]3 [FA] | %25
w: |||||||
 [EG]2 [GB]2 | [FA]2 [DF]2 | [EG]4) | z4 | z2 G2 | (G2 D2 | E2 F2) | (E3 F | G2 c2 | c2 G2 | %35
w: ||||||||||
 A2)!pp! ([Bc]2 | c2 G2 | A2 B2 | A2 f2) | (f2 e2 | d2 =B2 | c2 A2) | G4- |"^slowly" G2 F2 | %44
w: |||||||||
 !fermata!E4 :| z2!pp! E2 | E3 E | G3 G | !fermata!B4 |:!f! .[FA]2 .[Ac]2 | .[Af]2 z [Ac] | %51
w: |||||||
 ([Ec][Fd]) ([Ge][Af]) | [Bg]2 z2 | e2 (dc) | ([Af]2 [FA]2 | [EG]2 [FA]2 | [EG]2) z2 | %57
w: ||p * *||||
!f! .[DF]2 .[FA]2 | .[Fd]2 z [Ad] | ([A^c][=Bd]) ([ce][df]) | [eg]2 z2 | f2 ([Ge][Fd]) | %62
w: |||||
 [E^c]2 [Fd]2 | (F2 G2 | !fermata!A4) | (.[FA].[Ac] .[Ac].[Ac]) | (.[GB].[Bd]) .[Bd]2 | %67
w: |||||
 (.[EG].[GB] .[GB].[GB]) | (.[FA].[Ac]) .[Ac]2 | !^![df]2 ([ce][Bd]) | ([Bd][Ac] [GB][FA]) | %71
w: ||||
 ([EG][GB] [FA][Ac]) | [GB]2 z2 |!f! (.[Af].[cf] .[cf].[cf]) | (.[Bf].[df] .[df]2) | %75
w: ||||
 (.[Gc].[Bc] .[Bc].[Bc]) | .c.c .c2 |!p! [Bd]2 [Bd][Bd] | [Bd]2 [Bd]2 | ([Ac][Bd] [Ac][GB]) | %80
w: |||||
 .[FA]2 z2 |"^dolce" [Ac]2 ([GB][FA]) | [EG]2 ([Ac][FA]) | ([EG]2 [FA])[DF] | .[EG]2 z2 | %85
w: |||||
!f! (.[FA].[Af] .[Af].[Af]) | (.[Ge].[Bg]) .[Bg]2 |!p! (.[EG].[GB] .[GB].[GB]) | %88
w: |||
 (.[FA].[Ac]) .[Ac]2 |!f! Bd c_e | df =eg | fc dc | B4- | !fermata!B4 |!p! ([FA][Ac] [Bd][Ac]) | %95
w: |||||||
 fc dc | ([Ac][GB] [FA][EG]) | .[FA]2 .[Ec]2 | .[FA]2 .[Ac]2 | .[Af]4 :| %100
w: |||||
V:5
 .F,2 .F,2 | .F,2 .F,2 | .F,2 .F,2 | !>!C,4 | C,2 C,2 | .C,2 .C,2 | .C,2 .C,2 | !>!F,4 | A,C DC | %9
 B,A, G,F, | C,4 | .C,4 | F,3 C | B,A, G,F, | C,2 C,2 | .C,4 | F,2 D,2 | G,2 C,2 | G,2 G,,2 | %19
 .C,4 | C3 A, | G,2 B,2 | A,2 F,2 | C,4 | z4 | z4 | z4 | z2!p! G,2 | G,2 D,2 | E,2 F,2 | %30
 E,2 =B,,2 | C,2 D,2 | C,4- | C,4- | C,4- | C,4- | C,4 | z2 C,2 | F,4 | D,4 | G,2 F,2 | E,2 F,2 | %42
 G,4 | G,,4 | !fermata!C,4 :| z2 C,2 | C,3 C, | C,3 C, | !fermata!C,4 |: .F,2 .F,2 | .F,2 z F, | %51
 C,2 C2 | C2 z2 | C,4 | C,4 | C,4 | C,2 z2 | .D,2 .D,2 | .D,2 z F, | A,2 A,2 | ^C,2 z2 | D,2 G,2 | %62
 A,2 F,2 | B,,3 B,, | !fermata!A,,4 | z4 | z4 | z4 | z4 | z4 | z4 | z4 | z4 | .F,.A, .A,.A, | %74
 .G,.B, .B,2 | .E,.G, .G,.G, | .F,.A, .A,2 | B,,C, D,E, | F,G, A,B, | C2 C,2 | .D,2 z2 | %81
 A,,2 B,,2 | C,4 | C,4 | .C,2 z2 | F,2 F,2 | C2 C2 | C,4 | F,4 | D,2 F,2 | B,2 G,2 | A,2 F,2 | %92
 G,2 G,2 | !fermata!C,4 | F,4 | F,2 B,,2 | C,4 | .F,2 .C,2 | .F,2 .F,2 | .F,4 :| %100
V:6
 x4 | x4 | x4 | x4 | x4 | x4 | x4 | x4 | x4 | x4 | x4 | x4 | x4 | x4 | x4 | x4 | F4 | x4 | x4 | %19
 x4 | x4 | x4 | x4 | x4 | x4 | x4 | x4 | x4 | x4 | x4 | x4 | x4 | x4 | x4 | x4 | x4 | A2 E2 | %37
 F2 G2 | F2 A2 | A2 G2 | F2 D2 | G2 F2 | E4 | E2 D2 | !fermata!C4 :| x2 E2 | C3 C | E3 E | %48
 !fermata!G4 |: x4 | x4 | x4 | x4 | G2 B2 | x4 | x4 | x4 | x4 | x4 | x4 | x4 | x4 | x4 | D4 | %64
 !fermata!^C4 | x4 | x4 | x4 | x4 | x4 | x4 | x4 | x4 | x4 | x4 | x4 | Ac c2 | x4 | x4 | x4 | x4 | %81
 x4 | x4 | x4 | x4 | x4 | x4 | x4 | x4 | (F2 F2 | F2 B2 | A2) (BA) | G4- | !fermata!G4 | x4 | %95
 (A2 BA) | x4 | x4 | x4 | x4 :| %100

